X: 10305
T: Dolina MacKay
R: reel
M: 4/4
K: Dmajor
|:D2D2 CDDE|EDEG A2GA|dAAd A2GE|D2DA GECE|
D2D2 CDDE|EDEG A2GA|dAAd A2GE|D2EC D4:|
|:dAAd A2GA|dcAG A2GA|cGGc G2cG|A^BcA BAGE|
dAAd A2GA|dcAG A2GA|dAAd A2GE|D2EC D4:|
|:DEEG A2GA|dcAG A2GE|CEEG A2GA|cAGE A2GE|
DEEG A2GA|dcAG A2GA|dAAd A2GE|D2EC D4:|
|:AddA ccAd|dcAG A2Gc|GccA c2 GA|cAGE A2GE|
AddA ccAd|dcAG A2GA|dAAd A2GE|D2EC D4:|

